X:177
%%etbk:tnset id:57,pos:1,rep:3x,ant:
%%etbk:tnset id:259,pos:1,rep:3x,ant:
%%etbk:wsite http://www.thesession.org/tunes/display/27
%%etbk:pldat 2016-06-23T18:59,2016-06-22T16:31,2016-06-21T16:06,2016-05-04T16:11,2016-03-09T16:49,2016-03-08T15:17,2015-10-27T17:26,2015-10-25T14:43,2015-10-21T16:22,2015-10-07T16:58,2015-06-24T19:01,2015-05-28T19:02,2015-03-13T18:18,2015-03-09T17:55,2015-03-04T16:28,2015-02-14T14:18,2014-11-06T18:04,2014-11-04T16:27,2014-08-21T18:31,2014-06-25T15:27,2014-06-13T15:25,2014-06-04T15:20,2014-03-06T18:39,2014-03-04T19:21,2014-03-01T15:53,2014-02-23T11:25,2013-10-29T17:17,2013-10-27T15:06,2013-10-23T18:24,2013-10-16T15:58,2013-10-13T14:10,2013-10-08T16:24,2013-05-10T16:17
T: Drowsy Maggie
Z: Piano Box Version by Martin Fleischmann
H: Created 2013-02-19 /  Last Modified 2013-02-19
M: 4/4
L: 1/8
R: reel
K: Edor
|: "em"!1!E2!3!BE !5!dEB!1!E | !3!(3E!2!E!1!E !5!B!1!E "bm"!4!A!2!F!1!DF | "em"!1!E2!3!BE !5!dEB!1!E | "bm"!2!BABc !4!d!1!A!2!FA :|
"D"!3!d2!5!fd "A"!2!cde!2!c | "D"!1!d2!3!fd !3!f!5!aa2 | !1!d2!3!f!1!d "A"!2!cde!3!c | !2!BABc !4!d!1!A!2!F!1!A |
"D"!3!d2!5!fd "A"!2!cde!2!c | "D"!1!d2fd !3!f!5!a!5!a2 | "A"!5!bg!4!a!2!f !4!gfe!1!d | !2!BABc !4!d!1!A!2!F!4!A |


